X:12301
T:Foxhunter's, The
R:Slip Jig
B:Tuneworks Tunebook (https://www.tuneworks.co.uk/)
G:Tuneworks
Z:Jon Warbrick <jon.warbrick@googlemail.com>
M:9/8
L:1/8
K:D
|: "D"FDF F2 D "G"G2 E | "D"FDF F2D "A"E2 D | "D"FDF F2 D "G"G2 B | "D"AFD DEF "A"E2 D :|
|: "G"B3 BAG FGA | "Em"B2 E E2 F G2 B | "A"ABc dcB ABc | "D"d2 D DEF E2 D :|
|: "D"fdf f2 d "G"g2 e | "D"fdf f2 d "A"e2 d | "D"fdf f2 d "G"g2 b | "D"afd def "A"e2 d :|
|: "G"gfe d=cB AGA | "Em"B2E E2 F G2 B | "A"ABc dcB ABc | "D"d2 D DEF E2 D :| 